build-source/logos/yesterday.light.svg

<svg xmlns="http://www.w3.org/2000/svg" height="154.65" viewBox="0 0 200 154.652" enable-background="new 0 0 200 154.652"><g transform="matrix(.73871 0 0 .73871-417.24-249.19)"><path fill="#73c908" d="m595 380l42-42 63 64h-74l-31-22"/><path fill="#b3fa0a" d="m700 402l63-64 41.999 42-39 22h-65.999"/><path fill="#387305" d="m671 455l-76-75 105 22v53h-29"/><path fill="#4e9d04" d="m700 455v-53l105-22-76 75h-29"/><path fill="#295001" d="m671 546v-91l29-53v135l-29 9"/><path fill="#8cdf07" d="m729 546l-29-9v-135l29 53v91"/><path fill="#4b9405" d="m671 546l29-144 29 144h-58"/><g fill="#c0bebd"><path d="m575 464v-12.06l-9.5-14.89v-5.554h4.429l8.57 13.593 8.584-13.593h4.416v5.61l-9.5 14.757v12.133h-6.999"/><path d="m818.39 464v-12.06l-9.5-14.89v-5.554h4.43l8.57 13.593 8.585-13.593h4.415v5.61l-9.5 14.757v12.133h-7"/><path d="m597 464v-32.5h24v6h-17v7h16v6h-16v8h17v5.499h-24"/><path d="m688 464v-32.5h24v6h-17v7h15.999v6h-15.999v8h17v5.499h-24"/><path d="m665.5 464v-26.5h-10.5v-6h28v6h-10.5v26.5h-7"/><path d="m734 437.44h-9.434v8.06h9.473c3.9 0 4.616-1.758 4.616-4.201 0-1.729-.801-3.905-4.655-3.862m-3.723 14.06h-5.711v12.437h-7v-32.499h17.08c4.906 0 10.882 3.193 10.882 9.66 0 8.01-7.366 10.402-7.366 10.402l6.348 7.572v5h-4.548l-9.679-12.577"/><path d="m751 431.5v32.5h13.719c8.03 0 13.281-4.487 13.281-13.438v-5.562c0-8.629-6.472-13.501-14-13.501h-13m40.12 0l-11.124 27.25v5.251h5.437l2.438-6h13.812l2.188 6h5.501v-5l-11.126-27.5h-7.126m-33.12 6h5c4.538 0 7.999 2.212 7.999 8.5v4.312c0 5-2.228 7.687-7.999 7.687h-5v-20.499m36.624 2.25l4.75 12.249h-9.375l4.625-12.249"/><path d="m632.37 453.56h-6.812c0 8.101 6.01 11.501 13.25 11.501 9.02 0 14.625-3.641 14.625-9.939 0-14.31-20.437-7.44-20.437-14.812 0-2 1.681-3.625 6.06-3.625 4.02.342 5.849 1.836 5.849 4.758h7.25c0-5.685-4.545-10.571-12.974-10.571-5.991 0-13.187 2.192-13.187 9.251 0 14.279 20.312 6.761 20.312 14.937 0 2.645-2.858 4-7.375 4-5.724 0-6.564-5.5-6.564-5.5"/></g></g></svg>

<?xml version="1.0" encoding="utf-8"?>
<!-- Generator: Adobe Illustrator 16.0.0, SVG Export Plug-In . SVG Version: 6.00 Build 0)  -->
<!DOCTYPE svg PUBLIC "-//W3C//DTD SVG 1.1//EN" "http://www.w3.org/Graphics/SVG/1.1/DTD/svg11.dtd">
<svg version="1.1"
	 id="svg2" xmlns:sodipodi="http://sodipodi.sourceforge.net/DTD/sodipodi-0.dtd" xmlns:dc="http://purl.org/dc/elements/1.1/" xmlns:cc="http://creativecommons.org/ns#" xmlns:rdf="http://www.w3.org/1999/02/22-rdf-syntax-ns#" xmlns:svg="http://www.w3.org/2000/svg" xmlns:inkscape="http://www.inkscape.org/namespaces/inkscape" sodipodi:docname="Yesterday logo 2012.svg" inkscape:version="0.48.2 r9819"
	 xmlns="http://www.w3.org/2000/svg" xmlns:xlink="http://www.w3.org/1999/xlink" x="0px" y="0px" width="200px" height="154.652px"
	 viewBox="0 0 200 154.652" enable-background="new 0 0 200 154.652" xml:space="preserve">
<sodipodi:namedview  inkscape:zoom="1.4142136" fit-margin-left="0.5" fit-margin-top="0.5" borderopacity="1" guidetolerance="10" pagecolor="#ffffff" bordercolor="#666666" inkscape:cy="117.81347" showgrid="false" gridtolerance="10" inkscape:cx="79.650818" objecttolerance="10" id="namedview4" fit-margin-bottom="0.5" inkscape:window-maximized="1" inkscape:pageshadow="2" inkscape:window-x="-8" inkscape:current-layer="g3185" fit-margin-right="0.5" inkscape:pageopacity="0" inkscape:window-height="1028" inkscape:window-y="-8" inkscape:window-width="1920">
	<inkscape:grid  type="xygrid" enabled="true" visible="true" empspacing="5" id="grid2998" snapvisiblegridlinesonly="true">
		</inkscape:grid>
</sodipodi:namedview>
<g id="g3166" transform="translate(-502.69088,-410.56949)">
	<g id="g3185" transform="matrix(0.41493776,0,0,0.41493776,268.54357,338.16598)">
		<g id="g3001" transform="matrix(1.7803007,0,0,1.7803007,-441.26004,-426.04417)">
			<path id="path3040" inkscape:connector-curvature="0" fill="#73C908" d="M595,380l42-42l63,64h-74L595,380z"/>
			<path id="path3042" inkscape:connector-curvature="0" fill="#B3FA0A" d="M700,402L763,338l41.999,42l-39,22H700z"/>
			<path id="path3036" inkscape:connector-curvature="0" fill="#387305" d="M670.999,455l-76-75l105,22v53H670.999z"/>
			<path id="path3038" inkscape:connector-curvature="0" fill="#4E9D04" d="M700,455v-53l105-22l-76,75H700z"/>
			<path id="path3032" inkscape:connector-curvature="0" fill="#295001" d="M670.999,546v-91l29-53v135L670.999,546z"/>
			<path id="path3034" inkscape:connector-curvature="0" sodipodi:nodetypes="ccccc" fill="#8CDF07" d="M728.999,546l-29-9V402
				l29,53V546"/>
			<path id="path3028" inkscape:connector-curvature="0" sodipodi:nodetypes="cccccccccc" fill="none" d="M670.999,546h58v-91l76-75
				L763,338L700,402l-63-64l-42,42l76,75V546z"/>
			<path id="path3030" inkscape:connector-curvature="0" fill="#4B9405" d="M670.999,546l29-144l29,144H670.999z"/>
			<path id="path3139" inkscape:connector-curvature="0" sodipodi:nodetypes="cccccccccccc" fill="#C0BEBD" d="M575,464v-12.056
				l-9.5-14.89V431.5h4.429l8.57,13.593l8.584-13.593h4.416v5.61l-9.5,14.757V464H575z"/>
			<path id="path3141" inkscape:connector-curvature="0" sodipodi:nodetypes="cccccccccccc" fill="#C0BEBD" d="M818.386,464v-12.056
				l-9.5-14.89V431.5h4.43l8.57,13.593l8.585-13.593h4.415v5.61l-9.5,14.757V464H818.386z"/>
			<path id="path3143" inkscape:connector-curvature="0" sodipodi:nodetypes="ccccccccccccc" fill="#C0BEBD" d="M597,464v-32.5h24v6
				h-17v7h16v6h-16v8.001h17V464H597z"/>
			<path id="path3145" inkscape:connector-curvature="0" sodipodi:nodetypes="ccccccccccccc" fill="#C0BEBD" d="M688,464v-32.5h24v6
				h-17v7h15.999v6H695v8.001h17V464H688z"/>
			<path id="path3147" inkscape:connector-curvature="0" sodipodi:nodetypes="ccccccccc" fill="#C0BEBD" d="M665.5,464v-26.5H655v-6
				h28v6h-10.5V464H665.5z"/>
			<path id="path3149" inkscape:connector-curvature="0" sodipodi:nodetypes="cccccccccccccccccc" fill="#C0BEBD" d="
				M733.996,437.438h-9.434v8.063h9.473c3.9,0,4.616-1.758,4.616-4.201C738.652,439.571,737.85,437.395,733.996,437.438z
				 M730.273,451.499h-5.711v12.437h-7.001v-32.499h17.075c4.906,0,10.882,3.193,10.882,9.66c0,8.009-7.366,10.402-7.366,10.402
				l6.348,7.572v5.005h-4.548L730.273,451.499z"/>
			<path id="path3151" inkscape:connector-curvature="0" fill="#C0BEBD" d="M750.999,431.5V464h13.719
				c8.031,0,13.281-4.487,13.281-13.438v-5.562c0-8.629-6.472-13.501-14-13.501H750.999z M791.124,431.5L780,458.749V464h5.437
				l2.438-6h13.812l2.188,6h5.501v-5l-11.126-27.5H791.124z M758.001,437.5h5c4.538,0,7.999,2.212,7.999,8.5v4.312
				c0,5.005-2.228,7.687-7.999,7.687h-5V437.5z M794.625,439.75l4.75,12.249H790L794.625,439.75z"/>
			<path id="path3159" inkscape:connector-curvature="0" sodipodi:nodetypes="ccccccccccccc" fill="#C0BEBD" d="M632.375,453.562
				h-6.812c0,8.101,6.011,11.501,13.25,11.501c9.022,0,14.625-3.641,14.625-9.939c0-14.31-20.437-7.44-20.437-14.812
				c0-2.003,1.681-3.625,6.063-3.625c4.02,0.342,5.849,1.836,5.849,4.758h7.25c0-5.685-4.545-10.571-12.974-10.571
				c-5.991,0-13.187,2.192-13.187,9.251c0,14.279,20.312,6.761,20.312,14.937c0,2.645-2.858,4-7.375,4
				C633.215,459.062,632.375,453.562,632.375,453.562z"/>
		</g>
	</g>
</g>
</svg>
